packages/core/src/svgs/etn.svg

<svg width="24" height="24" viewBox="0 0 24 24" fill="none" xmlns="http://www.w3.org/2000/svg">
<g clip-path="url(#clip0_31_10116)">
<path d="M0 0H24V24H0V0Z" fill="#23BEE2"/>
<path d="M7.28998 16.0701C6.2942 14.9337 5.74499 13.4744 5.74448 11.9634C5.74397 10.4525 6.2922 8.99274 7.28722 7.85569C8.28225 6.71863 9.65634 5.98162 11.154 5.7817C12.6517 5.58178 14.171 5.93256 15.4294 6.76881L15.9866 6.48252C14.6331 5.50173 12.9655 5.05452 11.3029 5.22648C9.64034 5.39844 8.09957 6.17749 6.97551 7.41452C5.85145 8.65155 5.22307 10.2597 5.21064 11.9311C5.1982 13.6025 5.80259 15.2198 6.90812 16.4734L7.28998 16.0701ZM8.45741 12.9715L9.58241 13.8257L7.72541 15.7885C6.80142 14.7647 6.27891 13.4412 6.2543 12.0622C6.22968 10.6833 6.70462 9.34198 7.59147 8.28578C8.47833 7.22959 9.71725 6.52978 11.0797 6.31549C12.4421 6.10119 13.836 6.38687 15.0043 7.11981L9.65141 9.87809L8.82384 10.3024L9.59312 10.8334L10.1396 11.2152L8.54227 12.027L7.74641 12.4358L8.45784 12.9715H8.45741ZM15.7264 11.4274L14.6018 10.5788L16.602 8.46681C17.4592 9.4894 17.9316 10.7798 17.9371 12.1141C17.9426 13.4485 17.481 14.7427 16.6322 15.7724C15.7835 16.802 14.6011 17.5022 13.2902 17.7514C11.9793 18.0006 10.6225 17.7832 9.45512 17.1368L14.5328 14.5208L15.36 14.0965L14.5963 13.5655L14.0447 13.1841L15.6416 12.3668L16.4374 11.9635L15.7264 11.4278V11.4274ZM16.8621 8.04252C17.8035 9.17646 18.3127 10.6072 18.2995 12.081C18.2862 13.5547 17.7513 14.976 16.7896 16.0928C15.8279 17.2096 14.5017 17.9496 13.0463 18.1815C11.5909 18.4135 10.1004 18.1223 8.83927 17.3597L8.26669 17.6511C9.62619 18.5682 11.2716 18.9624 12.8991 18.7609C14.5265 18.5595 16.0262 17.7759 17.121 16.5551C18.2158 15.3342 18.832 13.7584 18.8556 12.1186C18.8792 10.4789 18.3088 8.88602 17.2496 7.63409L16.8621 8.04252Z" fill="#091B26"/>
<path d="M8.83408 12.5576L10.4579 13.7833L6.7915 17.6512L14.0815 13.884L12.7658 12.9767L15.1958 11.7352L13.5724 10.5043L17.2388 6.6416L9.94879 10.4087L11.2645 11.316L8.83408 12.5576Z" fill="white"/>
</g>
<defs>
<clipPath id="clip0_31_10116">
<rect width="24" height="24" fill="white"/>
</clipPath>
</defs>
</svg>

<svg xmlns="http://www.w3.org/2000/svg" width="24" height="24" fill="none" viewBox="0 0 24 24"><g clip-path="url(#a)"><path fill="#23BEE2" d="M0 0h24v24H0z"/><path fill="#091B26" d="M7.29 16.07a6.234 6.234 0 0 1 8.14-9.301l.557-.286a6.791 6.791 0 0 0-9.079 9.99zm1.167-3.098 1.125.854-1.857 1.963a5.714 5.714 0 0 1 7.28-8.67L9.65 9.88l-.827.423.77.531.546.382-1.598.812-.796.409zm7.27-1.545-1.125-.848 2-2.112a5.714 5.714 0 0 1-7.147 8.67l5.078-2.616.827-.425-.764-.53-.551-.382 1.597-.817.795-.404zm1.135-3.384A6.235 6.235 0 0 1 8.84 17.36l-.572.291A6.791 6.791 0 0 0 17.25 7.634z"/><path fill="#fff" d="m8.834 12.558 1.624 1.225-3.666 3.868 7.29-3.767-1.316-.907 2.43-1.242-1.624-1.23 3.667-3.863-7.29 3.767 1.316.907z"/></g><defs><clipPath id="a"><path fill="#fff" d="M0 0h24v24H0z"/></clipPath></defs></svg>
